themes/my-theme/source/img/business/brainstorm.svg

<svg width="93" height="109" viewBox="0 0 93 109" fill="none" xmlns="http://www.w3.org/2000/svg">
    <path d="M78.598 43.9654V33.4138H74.4459C73.8849 31.0291 72.9546 28.7799 71.6691 26.703L74.6024 23.7678L67.1424 16.3079L64.2073 19.2412C62.1286 17.9557 59.8811 17.0254 57.4965 16.4644V12.3105H46.9448V16.4626C44.5602 17.0236 42.3109 17.9539 40.234 19.2394L37.2989 16.3061L29.8389 23.7661L32.7723 26.7012C31.4867 28.7799 30.5564 31.0274 29.9954 33.412H25.8398V43.9636H29.9919C30.5529 46.3483 31.4832 48.5976 32.7687 50.6745L29.8354 53.6096L37.2954 61.0696L40.2358 58.1292C40.6191 58.3613 41.0236 58.5899 41.4545 58.8203L43.1093 55.7182L45.1845 55.7199V50.8292C40.9832 48.3953 38.1501 43.8616 38.1501 38.6579C38.1501 30.8884 44.4494 24.5891 52.2189 24.5891C59.9884 24.5891 66.2877 30.8884 66.2877 38.6579C66.2877 43.8616 63.4546 48.3953 59.2533 50.8292V55.7076L61.3584 55.7058L63.0308 58.801C63.4441 58.5776 63.8327 58.3543 64.2003 58.1327L67.1407 61.0731L74.6007 53.6131L71.6673 50.678C72.9528 48.5993 73.8831 46.3518 74.4441 43.9672H78.598V43.9654V43.9654Z" fill="#CBCEFF"/>
    <path d="M92.6335 40.4303C92.6335 18.4196 74.7327 0.284894 52.7308 0.00351721C52.5584 0.0017586 52.3896 0 52.219 0C33.2208 0 16.6161 13.5325 12.6188 32.3548C11.6305 36.9993 11.5074 41.7897 12.2495 46.6065L0.361328 67.8698L13.5297 71.6666V93.1726H31.1158V109H34.633V89.6554H17.047V69.0217L5.59317 65.719L15.9214 47.2484L15.8177 46.6364C15.0404 42.0535 15.1213 37.4934 16.0604 33.0864C19.7447 15.7307 35.1342 3.28155 52.6868 3.52072C72.7753 3.77748 89.118 20.3365 89.118 40.4321L89.1233 46.8492C89.1321 60.9391 82.1962 74.1287 70.5665 82.1321L69.805 82.6579V109H73.3223V84.4956C85.4461 75.7888 92.6475 61.7868 92.6387 46.8474L92.6335 40.4303Z" fill="#4700AB"/>
    <path d="M68.0465 38.656C68.0465 29.9281 60.947 22.8286 52.219 22.8286C43.4911 22.8286 36.3916 29.9281 36.3916 38.656C36.3916 43.9301 39.0629 48.877 43.426 51.8016V54.5732C41.4212 54.9812 39.9088 56.7573 39.9088 58.88C39.9088 60.4451 40.7354 61.8098 41.9681 62.5906C41.7817 63.0795 41.6674 63.6036 41.6674 64.1558C41.6674 66.5809 43.6388 68.5523 46.0639 68.5523H58.3741C60.7993 68.5523 62.7707 66.5809 62.7707 64.1558C62.7707 63.6018 62.6563 63.0778 62.4699 62.5906C63.7027 61.8116 64.5293 60.4451 64.5293 58.88C64.5293 56.7556 63.0169 54.9812 61.0121 54.5732V51.8016C65.3751 48.877 68.0465 43.9301 68.0465 38.656ZM39.9088 38.656C39.9088 31.8696 45.4326 26.3458 52.219 26.3458C59.0055 26.3458 64.5293 31.8696 64.5293 38.656C64.5293 43.0244 62.1692 47.1061 58.3724 49.3061L57.4948 49.8144V54.4835H53.9776V43.6083C56.0194 42.8802 57.4948 40.9457 57.4948 38.656C57.4948 35.7473 55.1278 33.3802 52.219 33.3802C49.3103 33.3802 46.9432 35.7473 46.9432 38.656C46.9432 40.9457 48.4187 42.8802 50.4604 43.6083V54.4835H46.9432V49.8144L46.0657 49.3061C42.2689 47.1061 39.9088 43.0262 39.9088 38.656ZM50.4604 38.656C50.4604 37.6853 51.2483 36.8974 52.219 36.8974C53.1898 36.8974 53.9776 37.6853 53.9776 38.656C53.9776 39.6268 53.1898 40.4146 52.219 40.4146C51.2483 40.4146 50.4604 39.6268 50.4604 38.656ZM44.3053 58.0007H60.1327C60.6164 58.0007 61.0121 58.3964 61.0121 58.88C61.0121 59.3636 60.6164 59.7593 60.1327 59.7593H58.3741H46.0639H44.3053C43.8217 59.7593 43.426 59.3636 43.426 58.88C43.426 58.3964 43.8217 58.0007 44.3053 58.0007ZM58.3741 65.0351H46.0639C45.5803 65.0351 45.1846 64.6394 45.1846 64.1558C45.1846 63.6722 45.5803 63.2765 46.0639 63.2765H58.3741C58.8578 63.2765 59.2534 63.6722 59.2534 64.1558C59.2534 64.6394 58.8578 65.0351 58.3741 65.0351Z" fill="#4700AB"/>
    <path d="M53.9498 72.0693H50.4326V75.5866H53.9498V72.0693Z" fill="#4700AB"/>
    <path d="M53.9498 79.104H50.4326V82.6212H53.9498V79.104Z" fill="#4700AB"/>
    <path d="M53.9498 86.1382H50.4326V89.6554H53.9498V86.1382Z" fill="#4700AB"/>
    <path d="M53.9498 93.1724H50.4326V96.6896H53.9498V93.1724Z" fill="#4700AB"/>
</svg>

<svg width="93" height="109" fill="none" xmlns="http://www.w3.org/2000/svg"><path d="M78.598 43.965V33.414h-4.152a22.484 22.484 0 0 0-2.777-6.711l2.933-2.935-7.46-7.46-2.935 2.933a22.504 22.504 0 0 0-6.71-2.777v-4.153H46.944v4.152a22.485 22.485 0 0 0-6.711 2.776l-2.935-2.933-7.46 7.46 2.933 2.935a22.502 22.502 0 0 0-2.777 6.711H25.84v10.552h4.152a22.485 22.485 0 0 0 2.777 6.71l-2.934 2.936 7.46 7.46 2.94-2.94c.384.231.789.46 1.22.69l1.654-3.102 2.075.002v-4.89c-4.2-2.435-7.034-6.968-7.034-12.172 0-7.77 6.3-14.069 14.069-14.069 7.77 0 14.069 6.3 14.069 14.069 0 5.204-2.833 9.737-7.035 12.171v4.879l2.105-.002 1.673 3.095c.413-.223.802-.447 1.17-.668l2.94 2.94 7.46-7.46-2.934-2.935a22.504 22.504 0 0 0 2.777-6.71h4.154v-.003Z" fill="#CBCEFF"/><path d="M92.633 40.43c0-22.01-17.9-40.145-39.902-40.426C52.558.002 52.39 0 52.219 0c-18.998 0-35.603 13.533-39.6 32.355-.989 4.644-1.112 9.435-.37 14.252L.361 67.87l13.169 3.797v21.506h17.586V109h3.517V89.655H17.047V69.022L5.593 65.719l10.328-18.47-.103-.613c-.778-4.583-.697-9.143.242-13.55C19.745 15.731 35.134 3.282 52.687 3.521c20.088.256 36.431 16.816 36.431 36.911l.005 6.417a42.797 42.797 0 0 1-18.556 35.283l-.762.526V109h3.517V84.496A46.314 46.314 0 0 0 92.64 46.847l-.005-6.417Z" fill="#4700AB"/><path d="M68.046 38.656c0-8.728-7.099-15.827-15.827-15.827s-15.827 7.1-15.827 15.827c0 5.274 2.67 10.221 7.034 13.146v2.771a4.402 4.402 0 0 0-3.517 4.307c0 1.565.826 2.93 2.06 3.71a4.378 4.378 0 0 0-.302 1.566 4.4 4.4 0 0 0 4.397 4.396h12.31a4.4 4.4 0 0 0 4.397-4.396c0-.554-.115-1.078-.301-1.565a4.386 4.386 0 0 0 2.06-3.711 4.4 4.4 0 0 0-3.518-4.307v-2.771c4.363-2.925 7.034-7.872 7.034-13.146Zm-28.137 0c0-6.786 5.524-12.31 12.31-12.31 6.786 0 12.31 5.524 12.31 12.31 0 4.368-2.36 8.45-6.157 10.65l-.877.508v4.67h-3.517V43.608c2.041-.728 3.517-2.662 3.517-4.952a5.282 5.282 0 0 0-5.276-5.276 5.282 5.282 0 0 0-5.276 5.276c0 2.29 1.476 4.224 3.517 4.952v10.876h-3.517v-4.67l-.877-.508c-3.797-2.2-6.157-6.28-6.157-10.65Zm10.551 0a1.76 1.76 0 1 1 3.519.001 1.76 1.76 0 0 1-3.519-.001Zm-6.155 19.345h15.828c.483 0 .88.395.88.879s-.397.88-.88.88H44.305a.882.882 0 0 1-.879-.88c0-.484.396-.88.88-.88Zm14.07 7.034H46.063a.882.882 0 0 1-.88-.88c0-.483.396-.879.88-.879h12.31c.484 0 .88.396.88.88 0 .483-.396.88-.88.88ZM53.95 72.07h-3.517v3.517h3.517v-3.518ZM53.95 79.104h-3.517v3.517h3.517v-3.517ZM53.95 86.138h-3.517v3.517h3.517v-3.517ZM53.95 93.172h-3.517v3.518h3.517v-3.518Z" fill="#4700AB"/></svg>
